docs/local/img/sprites/pass-hide.svg

<svg width="23" height="18" viewBox="0 0 23 18" xmlns="http://www.w3.org/2000/svg">
<path d="M14.3554 8.81875L15.6617 7.51242C15.7568 7.86802 15.8125 8.23979 15.8125 8.62504C15.8125 11.003 13.878 12.9375 11.5 12.9375C11.1147 12.9375 10.743 12.8818 10.3874 12.7868L11.6937 11.4805C13.122 11.3831 14.258 10.2471 14.3554 8.81875ZM22.9094 8.27591C22.821 8.11689 21.5672 5.91985 19.1162 4.05793L18.0703 5.10389C19.8574 6.41794 20.9898 7.9505 21.4356 8.62612C20.5837 9.92329 17.2419 14.375 11.5 14.375C10.6389 14.375 9.83825 14.2649 9.08482 14.0892L7.90373 15.2702C8.98959 15.6032 10.1831 15.8125 11.5 15.8125C19.0241 15.8125 22.7544 9.25323 22.9094 8.97418C23.0302 8.75694 23.0302 8.49315 22.9094 8.27591ZM19.9144 1.22695L4.10191 17.0395C3.96157 17.1798 3.77757 17.25 3.59375 17.25C3.40993 17.25 3.22593 17.1798 3.08559 17.0395C2.80474 16.7586 2.80474 16.3038 3.08559 16.0231L5.09737 14.0114C1.84503 12.0479 0.192445 9.15764 0.0905625 8.97418C-0.0301875 8.75694 -0.0301875 8.49297 0.0905625 8.27573C0.245633 7.99686 3.97594 1.43754 11.5 1.43754C13.4455 1.43754 15.1306 1.88137 16.5711 2.53759L18.8981 0.210639C19.1789 -0.0702129 19.6337 -0.0702129 19.9144 0.210639C20.1951 0.49149 20.1953 0.946279 19.9144 1.22695ZM6.16921 12.9395L7.98891 11.1198C7.48632 10.4147 7.1875 9.55493 7.1875 8.62504C7.1875 6.24706 9.12202 4.31254 11.5 4.31254C12.4299 4.31254 13.2897 4.61137 13.9948 5.11377L15.4662 3.64231C14.3037 3.17674 12.9826 2.87504 11.5 2.87504C5.75809 2.87504 2.41626 7.3268 1.56454 8.62397C2.1054 9.4437 3.66005 11.5187 6.16921 12.9395ZM9.03235 10.0762L12.9512 6.1574C12.5237 5.90493 12.0315 5.75004 11.5 5.75004C9.9148 5.75004 8.625 7.03984 8.625 8.62504C8.625 9.15656 8.77989 9.64872 9.03235 10.0762Z"/>
</svg>

<svg width="23" height="18" viewBox="0 0 23 18" xmlns="http://www.w3.org/2000/svg"><path d="M14.355 8.819l1.307-1.307c.095.356.15.728.15 1.113a4.317 4.317 0 01-4.312 4.313 4.3 4.3 0 01-1.113-.151l1.307-1.307a2.862 2.862 0 002.661-2.661zm8.554-.543c-.088-.16-1.342-2.356-3.793-4.218L18.07 5.104a14.386 14.386 0 013.366 3.522c-.852 1.297-4.194 5.749-9.936 5.749-.861 0-1.662-.11-2.415-.286L7.904 15.27c1.086.333 2.28.543 3.596.543 7.524 0 11.254-6.56 11.41-6.839a.718.718 0 000-.698zm-2.995-7.049L4.102 17.04a.717.717 0 01-1.016 0 .718.718 0 010-1.017l2.011-2.012C1.845 12.048.192 9.158.091 8.974a.719.719 0 010-.698c.155-.28 3.885-6.838 11.409-6.838 1.945 0 3.63.443 5.071 1.1L18.898.21a.718.718 0 111.016 1.016zM6.17 12.94l1.82-1.82a4.284 4.284 0 01-.801-2.495A4.317 4.317 0 0111.5 4.313c.93 0 1.79.298 2.495.8l1.471-1.47a10.583 10.583 0 00-3.966-.768c-5.742 0-9.084 4.452-9.935 5.749.54.82 2.095 2.895 4.604 4.316zm2.863-2.864l3.92-3.919A2.843 2.843 0 0011.5 5.75a2.878 2.878 0 00-2.875 2.875c0 .532.155 1.024.407 1.451z"/></svg>
